austria/municipalities/41733.svg

<?xml version="1.0" encoding="UTF-8"?>
<!DOCTYPE svg PUBLIC "-//W3C//DTD SVG 1.1//EN" "http://www.w3.org/Graphics/SVG/1.1/DTD/svg11.dtd">
<svg xmlns="http://www.w3.org/2000/svg" version="1.1" width="166px" height="207px" style="shape-rendering:geometricPrecision; text-rendering:geometricPrecision; image-rendering:optimizeQuality; fill-rule:evenodd; clip-rule:evenodd" xmlns:xlink="http://www.w3.org/1999/xlink">
<g><path style="opacity:1" fill="#000000" d="M -0.5,-0.5 C 54.8333,-0.5 110.167,-0.5 165.5,-0.5C 165.5,44.5 165.5,89.5 165.5,134.5C 161.239,157.511 149.906,176.344 131.5,191C 120.516,198.576 108.516,203.743 95.5,206.5C 86.8333,206.5 78.1667,206.5 69.5,206.5C 30.0336,197.035 6.70027,172.368 -0.5,132.5C -0.5,88.1667 -0.5,43.8333 -0.5,-0.5 Z"/></g>
<g><path style="opacity:1" fill="#002b72" d="M 3.5,3.5 C 50.5012,3.33334 97.5012,3.50001 144.5,4C 140.072,7.09247 137.239,11.2591 136,16.5C 132.942,23.2193 127.776,27.386 120.5,29C 118.667,30.8333 116.833,32.6667 115,34.5C 113.25,39.8766 111.25,45.21 109,50.5C 104.418,54.5447 99.2514,57.7114 93.5,60C 89.4421,64.6148 86.2755,69.7815 84,75.5C 78.6744,81.1598 72.5078,85.6598 65.5,89C 63.3333,91.1667 61.1667,93.3333 59,95.5C 56.8324,100.845 53.9991,105.845 50.5,110.5C 43.4529,116.212 36.1195,121.545 28.5,126.5C 24.2668,133.197 20.6001,140.197 17.5,147.5C 15.5,150.167 13.1667,152.5 10.5,154.5C 9.20108,153.91 8.36775,152.91 8,151.5C 6.53974,146.531 5.2064,141.531 4,136.5C 3.50001,92.1679 3.33334,47.8346 3.5,3.5 Z"/></g>
<g><path style="opacity:1" fill="#fefffe" d="M 147.5,3.5 C 152.167,3.5 156.833,3.5 161.5,3.5C 161.813,6.24688 161.48,8.91355 160.5,11.5C 157.849,13.6499 155.349,15.9832 153,18.5C 150.74,23.9507 147.74,28.9507 144,33.5C 139.039,37.1256 134.372,41.1256 130,45.5C 126.764,52.868 122.264,59.368 116.5,65C 106.514,69.8067 99.3469,77.3067 95,87.5C 87.4829,93.2608 80.1496,99.2608 73,105.5C 69.5157,111.632 65.849,117.632 62,123.5C 55,129.167 48,134.833 41,140.5C 36.3024,147.235 31.9691,154.235 28,161.5C 24.9845,164.683 21.8178,167.683 18.5,170.5C 15.7086,166.418 13.0419,162.251 10.5,158C 15.0833,154.088 18.9166,149.588 22,144.5C 23.5676,139.125 25.9009,134.125 29,129.5C 34.6201,124.55 40.7868,120.384 47.5,117C 54.1505,111.027 58.9838,103.86 62,95.5C 67.2341,90.7966 73.0675,86.9633 79.5,84C 84.6484,79.5338 88.1484,74.0338 90,67.5C 91.1411,65.3911 92.6411,63.5578 94.5,62C 101.241,59.5461 107.075,55.7128 112,50.5C 113.695,45.0531 115.695,39.7198 118,34.5C 123.62,30.9454 129.12,27.2787 134.5,23.5C 137.362,15.749 141.696,9.08233 147.5,3.5 Z"/></g>
<g><path style="opacity:1" fill="#000000" d="M 49.5,9.5 C 51.3904,9.2965 52.8904,9.96317 54,11.5C 55.958,14.1157 57.458,16.949 58.5,20C 57.6476,26.4719 57.3143,32.9719 57.5,39.5C 64.2055,39.757 70.8722,39.4237 77.5,38.5C 81.5744,40.0824 84.9077,42.5824 87.5,46C 87.2409,47.2613 86.5742,48.2613 85.5,49C 83.2769,50.7331 80.9435,52.2331 78.5,53.5C 71.6299,51.7157 64.6299,51.049 57.5,51.5C 57.5582,59.5302 57.7249,67.5302 58,75.5C 55.8735,78.1322 53.5402,80.4655 51,82.5C 48.3329,79.3273 45.8329,75.9939 43.5,72.5C 44,71.5 44.5,70.5 45,69.5C 45.4995,63.5092 45.6662,57.5092 45.5,51.5C 38.3701,51.049 31.3701,51.7157 24.5,53.5C 21.1667,51.1667 17.8333,48.8333 14.5,46.5C 17.5272,43.2338 21.0272,40.5671 25,38.5C 31.7995,39.4055 38.6329,39.7388 45.5,39.5C 45.9362,32.6958 45.2695,26.0292 43.5,19.5C 45.9522,16.394 47.9522,13.0607 49.5,9.5 Z"/></g>
<g><path style="opacity:1" fill="#fea700" d="M 50.5,12.5 C 55.254,15.3792 56.754,19.3792 55,24.5C 54.5005,30.4908 54.3338,36.4908 54.5,42.5C 60.8421,42.6662 67.1754,42.4995 73.5,42C 75.1012,41.7266 76.6012,41.2266 78,40.5C 80.2192,42.7196 82.7192,44.5529 85.5,46C 83,47.8333 80.5,49.6667 78,51.5C 76.6012,50.7734 75.1012,50.2734 73.5,50C 67.1754,49.5005 60.8421,49.3338 54.5,49.5C 54.0248,57.2989 54.6915,64.9656 56.5,72.5C 55.0787,75.0094 53.4121,77.3428 51.5,79.5C 49.4552,77.2412 47.7885,74.7412 46.5,72C 47.4502,64.5442 47.7836,57.0442 47.5,49.5C 41.1579,49.3338 34.8246,49.5005 28.5,50C 27.5,50.5 26.5,51 25.5,51.5C 23.0072,49.4197 20.3405,47.5864 17.5,46C 20.5616,44.9392 23.0616,43.1059 25,40.5C 26.0674,41.1905 27.2341,41.6905 28.5,42C 34.8246,42.4995 41.1579,42.6662 47.5,42.5C 47.7836,34.9558 47.4502,27.4558 46.5,20C 47.9784,17.5413 49.3118,15.0413 50.5,12.5 Z"/></g>
<g><path style="opacity:1" fill="#00612a" d="M 160.5,13.5 C 161.665,54.6646 161.831,95.998 161,137.5C 152.743,172.757 130.91,194.257 95.5,202C 64.6058,206.534 39.6058,196.701 20.5,172.5C 29.3712,163.772 36.5378,153.772 42,142.5C 51.6875,135.989 60.3542,128.323 68,119.5C 71.7365,108.434 78.9031,100.601 89.5,96C 96.2608,89.616 101.927,82.4494 106.5,74.5C 112.862,70.3166 118.862,65.65 124.5,60.5C 126.827,55.1753 129.66,50.1753 133,45.5C 142.493,39.6745 149.493,31.6745 154,21.5C 156.379,18.9592 158.546,16.2925 160.5,13.5 Z"/></g>
<g><path style="opacity:1" fill="#000000" d="M 120.5,99.5 C 125.389,99.5569 127.722,102.057 127.5,107C 126.69,111.399 125.524,115.566 124,119.5C 136.307,104.482 142.974,106.482 144,125.5C 142.421,127.041 140.587,128.208 138.5,129C 134.181,129.76 129.848,130.427 125.5,131C 132.187,132.337 138.354,134.837 144,138.5C 145.328,143.338 143.494,145.671 138.5,145.5C 139.073,152.55 136.073,154.716 129.5,152C 125.952,148.671 123.119,144.837 121,140.5C 121.345,144.568 122.345,148.568 124,152.5C 124.667,155.167 124.667,157.833 124,160.5C 120.706,163.311 117.706,162.978 115,159.5C 110.495,164 107.662,163.167 106.5,157C 107.367,152.198 108.7,147.532 110.5,143C 110.37,141.941 109.87,141.108 109,140.5C 105.138,146.541 99.971,150.874 93.5,153.5C 92.2284,153.43 91.0617,153.097 90,152.5C 89.3023,148.048 87.469,144.214 84.5,141C 85.1043,138.532 86.4376,136.532 88.5,135C 93.6189,132.808 98.9522,131.308 104.5,130.5C 100.541,129.673 96.5408,129.173 92.5,129C 86.705,128.218 84.5383,125.051 86,119.5C 87.3068,118.228 88.8068,117.228 90.5,116.5C 89.4763,113.212 90.643,110.879 94,109.5C 100.481,111.647 105.481,115.647 109,121.5C 109.18,118.691 108.513,116.024 107,113.5C 106.333,109.833 106.333,106.167 107,102.5C 110.13,99.8783 113.297,99.8783 116.5,102.5C 117.901,101.479 119.235,100.479 120.5,99.5 Z"/></g>
<g><path style="opacity:1" fill="#fefffe" d="M 109.5,102.5 C 110.873,102.343 112.207,102.51 113.5,103C 115.619,106.169 117.619,106.169 119.5,103C 121.134,102.506 122.801,102.34 124.5,102.5C 125.488,109.978 123.322,116.311 118,121.5C 115.867,120.647 113.867,120.314 112,120.5C 109.318,114.669 108.485,108.669 109.5,102.5 Z"/></g>
<g><path style="opacity:1" fill="#fefffe" d="M 136.5,111.5 C 140.092,113.472 140.426,115.972 137.5,119C 143.956,121.471 143.956,124.138 137.5,127C 133.483,127.671 129.483,128.004 125.5,128C 124.743,126.488 123.743,125.154 122.5,124C 126.74,119.255 131.407,115.088 136.5,111.5 Z"/></g>
<g><path style="opacity:1" fill="#fefffe" d="M 93.5,112.5 C 99.6058,114.266 104.272,117.932 107.5,123.5C 106.96,124.748 106.293,125.915 105.5,127C 99.2578,128.245 93.4244,127.411 88,124.5C 87.4054,123.101 87.5721,121.768 88.5,120.5C 90.1667,119.833 91.8333,119.167 93.5,118.5C 92.9264,116.941 92.2598,115.441 91.5,114C 92.4158,113.722 93.0825,113.222 93.5,112.5 Z"/></g>
<g><path style="opacity:1" fill="#fea700" d="M 111.5,123.5 C 120.108,122.276 123.941,125.943 123,134.5C 120.565,139.224 116.731,140.724 111.5,139C 104.896,133.888 104.896,128.721 111.5,123.5 Z"/></g>
<g><path style="opacity:1" fill="#fefffe" d="M -0.5,132.5 C 6.70027,172.368 30.0336,197.035 69.5,206.5C 46.1667,206.5 22.8333,206.5 -0.5,206.5C -0.5,181.833 -0.5,157.167 -0.5,132.5 Z"/></g>
<g><path style="opacity:1" fill="#fefffe" d="M 95.5,134.5 C 98.8984,134.18 102.232,134.513 105.5,135.5C 105.987,136.446 106.32,137.446 106.5,138.5C 103.658,143.32 99.9913,147.487 95.5,151C 94.2068,151.49 92.8734,151.657 91.5,151.5C 91.5792,150.07 91.2458,148.736 90.5,147.5C 93.6904,143.602 92.6904,141.935 87.5,142.5C 87.3433,141.127 87.51,139.793 88,138.5C 90.4172,136.872 92.9172,135.539 95.5,134.5 Z"/></g>
<g><path style="opacity:1" fill="#fefffe" d="M 125.5,134.5 C 130.243,135.349 134.909,136.515 139.5,138C 143.798,142.236 142.798,144.069 136.5,143.5C 137.921,149.113 135.921,151.28 130.5,150C 127.43,146.767 125.096,143.1 123.5,139C 124.582,137.67 125.249,136.17 125.5,134.5 Z"/></g>
<g><path style="opacity:1" fill="#fefffe" d="M 165.5,134.5 C 165.5,158.5 165.5,182.5 165.5,206.5C 142.167,206.5 118.833,206.5 95.5,206.5C 108.516,203.743 120.516,198.576 131.5,191C 149.906,176.344 161.239,157.511 165.5,134.5 Z"/></g>
<g><path style="opacity:1" fill="#fefffe" d="M 112.5,142.5 C 114.5,142.5 116.5,142.5 118.5,142.5C 119.074,146.325 120.241,149.991 122,153.5C 122.678,161.557 120.178,162.557 114.5,156.5C 113.278,158.978 111.278,159.978 108.5,159.5C 109.68,153.781 111.013,148.114 112.5,142.5 Z"/></g>
</svg>

<svg xmlns="http://www.w3.org/2000/svg" width="166" height="207" style="shape-rendering:geometricPrecision;text-rendering:geometricPrecision;image-rendering:optimizeQuality;fill-rule:evenodd;clip-rule:evenodd"><path style="opacity:1" d="M-.5-.5h166v135c-4.261 23.011-15.594 41.844-34 56.5-10.984 7.576-22.984 12.743-36 15.5h-26c-39.466-9.465-62.8-34.132-70-74V-.5z"/><path style="opacity:1" fill="#002b72" d="M3.5 3.5c47.001-.167 94.001 0 141 .5-4.428 3.092-7.261 7.26-8.5 12.5-3.058 6.72-8.224 10.886-15.5 12.5l-5.5 5.5a195.314 195.314 0 0 1-6 16c-4.582 4.045-9.749 7.211-15.5 9.5A52.943 52.943 0 0 0 84 75.5 61.554 61.554 0 0 1 65.5 89L59 95.5a66.397 66.397 0 0 1-8.5 15 260.133 260.133 0 0 1-22 16 146.034 146.034 0 0 0-11 21c-2 2.667-4.333 5-7 7-1.299-.59-2.132-1.59-2.5-3a307.53 307.53 0 0 1-4-15c-.5-44.332-.667-88.665-.5-133z"/><path style="opacity:1" fill="#fefffe" d="M147.5 3.5h14a16.874 16.874 0 0 1-1 8 74.06 74.06 0 0 0-7.5 7 59.187 59.187 0 0 1-9 15 119.245 119.245 0 0 0-14 12A61.717 61.717 0 0 1 116.5 65c-9.986 4.807-17.153 12.307-21.5 22.5a446.786 446.786 0 0 0-22 18 330.554 330.554 0 0 1-11 18l-21 17a226.5 226.5 0 0 0-13 21 120.618 120.618 0 0 1-9.5 9 243.766 243.766 0 0 1-8-12.5c4.583-3.912 8.417-8.412 11.5-13.5a53.888 53.888 0 0 1 7-15A87.377 87.377 0 0 1 47.5 117c6.65-5.973 11.484-13.14 14.5-21.5A69.592 69.592 0 0 1 79.5 84c5.148-4.466 8.648-9.966 10.5-16.5a18.78 18.78 0 0 1 4.5-5.5c6.741-2.454 12.575-6.287 17.5-11.5a149.658 149.658 0 0 1 6-16 410.217 410.217 0 0 0 16.5-11c2.862-7.751 7.196-14.418 13-20z"/><path style="opacity:1" d="M49.5 9.5c1.89-.204 3.39.463 4.5 2a30.62 30.62 0 0 1 4.5 8.5 122.436 122.436 0 0 0-1 19.5c6.706.257 13.372-.076 20-1 4.074 1.582 7.408 4.082 10 7.5-.26 1.261-.926 2.261-2 3a45.237 45.237 0 0 1-7 4.5 66.352 66.352 0 0 0-21-2c.058 8.03.225 16.03.5 24a45.807 45.807 0 0 1-7 7 113.29 113.29 0 0 1-7.5-10l1.5-3c.5-5.99.666-11.99.5-18a66.352 66.352 0 0 0-21 2l-10-7a38.327 38.327 0 0 1 10.5-8c6.8.906 13.633 1.239 20.5 1a61.02 61.02 0 0 0-2-20 45.097 45.097 0 0 0 6-10z"/><path style="opacity:1" fill="#fea700" d="M50.5 12.5c4.754 2.88 6.254 6.88 4.5 12-.5 5.99-.666 11.99-.5 18 6.342.166 12.675 0 19-.5a15.276 15.276 0 0 0 4.5-1.5 30.37 30.37 0 0 0 7.5 5.5L78 51.5a15.276 15.276 0 0 0-4.5-1.5 180.95 180.95 0 0 0-19-.5 77.743 77.743 0 0 0 2 23 40.946 40.946 0 0 1-5 7 30.366 30.366 0 0 1-5-7.5 136.974 136.974 0 0 0 1-22.5 180.95 180.95 0 0 0-19 .5l-3 1.5a52.13 52.13 0 0 0-8-5.5c3.062-1.06 5.562-2.894 7.5-5.5 1.067.69 2.234 1.19 3.5 1.5 6.325.5 12.658.666 19 .5.284-7.544-.05-15.044-1-22.5a81.71 81.71 0 0 0 4-7.5z"/><path style="opacity:1" fill="#00612a" d="M160.5 13.5a2566.48 2566.48 0 0 1 .5 124c-8.257 35.257-30.09 56.757-65.5 64.5-30.894 4.534-55.894-5.299-75-29.5 8.871-8.728 16.038-18.728 21.5-30a130.801 130.801 0 0 0 26-23c3.737-11.066 10.903-18.899 21.5-23.5 6.76-6.384 12.427-13.55 17-21.5a143.776 143.776 0 0 0 18-14 82.691 82.691 0 0 1 8.5-15c9.493-5.825 16.493-13.826 21-24a72.58 72.58 0 0 0 6.5-8z"/><path style="opacity:1" d="M120.5 99.5c4.889.057 7.222 2.557 7 7.5-.81 4.399-1.976 8.566-3.5 12.5 12.307-15.018 18.974-13.018 20 6a15.83 15.83 0 0 1-5.5 3.5 304.77 304.77 0 0 1-13 2c6.687 1.337 12.854 3.837 18.5 7.5 1.328 4.838-.506 7.171-5.5 7 .573 7.05-2.427 9.216-9 6.5a39.318 39.318 0 0 1-8.5-11.5c.345 4.068 1.345 8.068 3 12a16.242 16.242 0 0 1 0 8c-3.294 2.811-6.294 2.478-9-1-4.505 4.5-7.338 3.667-8.5-2.5a72.939 72.939 0 0 1 4-14c-.13-1.059-.63-1.892-1.5-2.5-3.862 6.041-9.029 10.374-15.5 13a7.93 7.93 0 0 1-3.5-1c-.698-4.452-2.531-8.286-5.5-11.5.604-2.468 1.938-4.468 4-6a63.846 63.846 0 0 1 16-4.5 74.089 74.089 0 0 0-12-1.5c-5.795-.782-7.962-3.949-6.5-9.5a14.743 14.743 0 0 1 4.5-3c-1.024-3.288.143-5.621 3.5-7 6.481 2.147 11.481 6.147 15 12 .18-2.809-.487-5.476-2-8a30.485 30.485 0 0 1 0-11c3.13-2.622 6.297-2.622 9.5 0a173.55 173.55 0 0 0 4-3z"/><path style="opacity:1" fill="#fefffe" d="M109.5 102.5a8.43 8.43 0 0 1 4 .5c2.119 3.169 4.119 3.169 6 0a12.93 12.93 0 0 1 5-.5c.988 7.478-1.178 13.811-6.5 19-2.133-.853-4.133-1.186-6-1-2.682-5.831-3.515-11.831-2.5-18zM136.5 111.5c3.592 1.972 3.926 4.472 1 7.5 6.456 2.471 6.456 5.138 0 8a72.28 72.28 0 0 1-12 1 13.92 13.92 0 0 0-3-4 82.309 82.309 0 0 1 14-12.5zM93.5 112.5c6.106 1.766 10.772 5.432 14 11a18.08 18.08 0 0 1-2 3.5c-6.242 1.245-12.076.411-17.5-2.5-.595-1.399-.428-2.732.5-4l5-2a37.107 37.107 0 0 0-2-4.5c.916-.278 1.582-.778 2-1.5z"/><path style="opacity:1" fill="#fea700" d="M111.5 123.5c8.608-1.224 12.441 2.443 11.5 11-2.435 4.724-6.269 6.224-11.5 4.5-6.604-5.112-6.604-10.279 0-15.5z"/><path style="opacity:1" fill="#fefffe" d="M-.5 132.5c7.2 39.868 30.534 64.535 70 74h-70v-74zM95.5 134.5c3.398-.32 6.732.013 10 1 .487.946.82 1.946 1 3-2.842 4.82-6.509 8.987-11 12.5a8.43 8.43 0 0 1-4 .5 6.846 6.846 0 0 0-1-4c3.19-3.898 2.19-5.565-3-5a8.435 8.435 0 0 1 .5-4 40.404 40.404 0 0 1 7.5-4zM125.5 134.5c4.743.849 9.409 2.015 14 3.5 4.298 4.236 3.298 6.069-3 5.5 1.421 5.613-.579 7.78-6 6.5-3.07-3.233-5.404-6.9-7-11a9.175 9.175 0 0 0 2-4.5zM165.5 134.5v72h-70c13.016-2.757 25.016-7.924 36-15.5 18.406-14.656 29.739-33.489 34-56.5zM112.5 142.5h6a36.487 36.487 0 0 0 3.5 11c.678 8.057-1.822 9.057-7.5 3-1.222 2.478-3.222 3.478-6 3a314.926 314.926 0 0 1 4-17z"/></svg>
